**kern	**kern	**dynam
*part1	*part1	*part1
*staff2	*staff1	*
*I"Piano	*	*
*clefF4	*clefG2	*
*k[]	*k[]	*
=1	=1	=1
*	*^	*
2BB-X) 2B-X	8eL 8ee	2g#X 2dd	.
.	8e 8ee	.	.
.	8e 8ee	.	.
.	8eJ 8ee	.	.
=	=	=	=
(4AA 4E 4c#X	8eL 8ee	4a 4cc#X	<
.	8eJ 8ee	.	.
*	*v	*v	*
8FF#XL 8F#X	8aL 8dd 8aa	.
8FFnJ) 8Fn	8aJ 8dd#X 8bb	.
=	=	=
4EE 4E	8g#XL) 8ee 8bb	[
.	8e 8ee	.
4E	8e 8ee	.
.	8eJ 8ee	.
=	=	=
*	*^	*
2D 2A 2d	8fL 8ff	2a 2dd	<
.	8f 8ff	.	.
.	8f 8ff	.	.
.	8fJ 8ff	.	.
=	=	=	=
2C 2F 2c	8fL 8ff	2a 2ee-X	.
.	8f 8ff	.	.
.	8f 8ff	.	.
.	8fJ 8ff	.	.
=	=	=	=
4BB-X 4F 4B-X	8fL 8ff	4b-X 4dd	.
.	8fJ 8ff	.	.
*	*v	*v	*
!	!	!LO:DY:a
8GGL 8D 8G	8b-L 8dd 8gg 8bb-X	[ f
8GGJ 8C 8B-	8ccJ 8een 8bb- 8ccc	.
=	=	=
8FFL 8C 8A	8ccL 8ff 8aa 8ccc	.
(8FFJ 8F	(8fJ	.
!	!LO:TX:b:i:t=rit.	!
8DD'L 8D	8d'L 8f 8a	.
8EE'J) 8E	8d'J) 8e 8g#X	.
=||	=||	=||
*-	*-	*-
!!!system-decoration: {(s1,s2)}
